components/icon/svg/24/action_done.svg

<?xml version="1.0" encoding="UTF-8"?>
<svg width="24px" height="24px" viewBox="0 0 24 24" version="1.1" xmlns="http://www.w3.org/2000/svg" xmlns:xlink="http://www.w3.org/1999/xlink">
    <!-- Generator: Sketch 64 (93537) - https://sketch.com -->
    <title>ic-db_action_done_24</title>
    <desc>Created with Sketch.</desc>
    <g id="Symbols" stroke="none" stroke-width="1" fill="none" fill-rule="evenodd">
        <g id="24dp-Icon/Action/Done" fill="#282D37">
            <path d="M8.3265,17.7061 L4.2857,13.6653 C4.0898,13.4694 3.9918,13.249 3.9918,12.9796 C3.9918,12.4163 4.4571,11.9755 4.9959,11.9755 C5.2653,11.9755 5.4857,12.0735 5.6816,12.2694 L9.0367,15.5755 L18.3184,6.2694 C18.5143,6.098 18.7837,6 19.0041,6 C19.5429,6 20.0082,6.4408 20.0082,6.9796 C20.0082,7.249 19.9102,7.4939 19.7633,7.6898 L9.7469,17.7061 C9.551,17.902 9.3061,18 9.0367,18 C8.7673,18 8.5224,17.902 8.3265,17.7061 Z" id="🎨-Color"></path>
        </g>
    </g>
</svg>

<svg width="24" height="24" xmlns="http://www.w3.org/2000/svg"><path d="M8.326 17.706l-4.04-4.04a.927.927 0 01-.294-.686c0-.564.465-1.005 1.004-1.005.27 0 .49.098.686.294l3.355 3.306 9.281-9.306c.196-.171.466-.269.686-.269.539 0 1.004.44 1.004.98 0 .269-.098.514-.245.71L9.747 17.706a.98.98 0 01-.71.294.98.98 0 01-.71-.294z" fill="#282D37" fill-rule="evenodd"/></svg>
